X: 1
T: Gavotte des Montagnes #2   [Am]
S: 2017 DEFFA Folk Band collection
Z: 2017 John Chambers <jc:trillian.mit.edu>
M: 4/4
L: 1/8
%Q: 1/4=138-160
K: Am
% - - - - - - - - - -
"A"|:\
"Am"A>G AB cd e2 | "Am"ed/c/ "G"Bc "Am"A2A2 :|
"B"|:\
"Am"Ae ce "Dm"fe d2 | "G"Bd dc/B/ "Am"cd ec |
| \
"Am"A>G AB cd e2 | "Am"ed/c/ "G"Bc "Am"A2A2 :|
% - - - - - - - - - -
